assets/wisdom.svg

<svg width="67" height="65" viewBox="0 0 67 65" fill="none" xmlns="http://www.w3.org/2000/svg">
<path fill-rule="evenodd" clip-rule="evenodd" d="M10.0654 38.1609C9.60883 38.3383 9.09118 38.1144 8.91086 37.6549C8.73347 37.1983 8.95739 36.6806 9.41688 36.5003C12.9416 35.1189 16.4313 34.5228 19.8888 34.7031C23.3462 34.8833 26.7578 35.846 30.1194 37.5879C30.5557 37.8119 30.7272 38.3498 30.5033 38.7861C30.2794 39.2223 29.7414 39.3939 29.3051 39.17C26.1673 37.5443 22.9974 36.6486 19.7981 36.4799C16.5962 36.3113 13.3537 36.8725 10.0647 38.1579L10.0654 38.1609ZM8.93416 44.5733C8.4834 44.7711 7.95703 44.5675 7.7593 44.1168C7.56156 43.666 7.76511 43.1396 8.21587 42.9419C11.9441 41.2988 15.6375 40.5252 19.296 40.6212C22.9603 40.7201 26.5663 41.6885 30.123 43.5293C30.5592 43.7532 30.7308 44.2912 30.5069 44.7275C30.2829 45.1637 29.745 45.3353 29.3087 45.1113C25.9905 43.3926 22.6375 42.4882 19.2552 42.3981C15.8672 42.3079 12.4269 43.032 8.93744 44.5705L8.93416 44.5733ZM7.83776 50.4274C7.38119 50.6048 6.86354 50.3809 6.68322 49.9214C6.50583 49.4648 6.72975 48.9472 7.18924 48.7669C11.092 47.2401 14.9572 46.5508 18.7808 46.705C22.605 46.8562 26.3798 47.8479 30.1022 49.68C30.5442 49.8952 30.7245 50.4274 30.5093 50.8666C30.2941 51.3086 29.7619 51.4889 29.3228 51.2737C25.8243 49.5521 22.288 48.6215 18.7109 48.479C15.1368 48.3365 11.5103 48.985 7.83774 50.4246L7.83776 50.4274ZM54.551 30.7158C54.1643 30.4133 54.0974 29.852 54.4027 29.4653C54.7052 29.0785 55.2665 29.0116 55.6532 29.3169L57.4476 30.7274L60.4604 27.2463C60.7803 26.8741 61.3445 26.8334 61.7138 27.1562C62.0832 27.4761 62.1268 28.0402 61.804 28.4096L58.2706 32.4926L58.2648 32.5013C57.9623 32.8881 57.401 32.955 57.0143 32.6497L54.554 30.7157L54.551 30.7158ZM63.1386 24.8675C61.8532 23.5821 60.0793 22.7881 58.1163 22.7881C56.1562 22.7881 54.3794 23.5821 53.0939 24.8675C51.8085 26.1529 51.0146 27.9269 51.0146 29.8898C51.0146 31.8499 51.8085 33.6268 53.0939 34.9122C54.3794 36.1976 56.1533 36.9915 58.1163 36.9915C60.0764 36.9915 61.8532 36.1976 63.1386 34.9122C64.4241 33.6268 65.218 31.8528 65.218 29.8898C65.218 27.9298 64.4241 26.1529 63.1386 24.8675ZM34.3071 58.6454V62.234C38.7303 59.9453 43.2208 58.6774 47.7718 58.4331C52.5789 58.1742 57.4471 59.0525 62.3733 61.0679L64.5137 58.3923C59.3983 55.8448 54.3642 54.5681 49.4149 54.5681C44.3023 54.5681 39.2653 55.9262 34.3071 58.6454ZM32.5244 34.0894C28.2786 31.3964 23.9718 30.0471 19.6062 30.0471C15.2003 30.0471 10.7133 31.4168 6.14444 34.1562L2.0818 56.5227C7.25826 54.0304 12.3705 52.7829 17.4166 52.7829C22.5321 52.7829 27.5691 54.0654 32.5244 56.6304V34.0867V34.0894ZM49.2343 30.1401C46.7769 29.9104 44.337 30.1023 41.9146 30.7188C39.3583 31.3703 36.8225 32.4928 34.3067 34.0893V56.633C39.2651 54.068 44.3021 52.7855 49.4145 52.7855C54.4601 52.7855 59.57 54.0331 64.7493 56.5254L61.4108 38.1433C60.3929 38.5505 59.2791 38.7744 58.1158 38.7744C55.6614 38.7744 53.4425 37.7799 51.8343 36.1716C50.2814 34.6187 49.3012 32.4928 49.2343 30.1401ZM32.5244 62.231C28.1826 59.986 23.7797 58.7209 19.3158 58.4447C14.5756 58.148 9.77453 58.9623 4.91158 60.8846L2.38443 58.3574C7.47952 55.8303 12.49 54.5681 17.4163 54.5681C22.5288 54.5681 27.5658 55.9262 32.524 58.6454V62.234L32.5244 62.231ZM66.3835 58.8983C66.7004 58.718 66.8866 58.3516 66.8197 57.9706L63.0594 37.2732C63.5422 36.9504 63.9901 36.5811 64.3972 36.171C66.0054 34.5628 67 32.341 67 29.8895C67 27.435 66.0054 25.2161 64.3972 23.6079C62.789 21.9997 60.5672 21.0051 58.1156 21.0051C55.6612 21.0051 53.4423 21.9997 51.8341 23.6079C50.5662 24.8758 49.6792 26.5248 49.3622 28.3685C46.7071 28.1242 44.0781 28.3307 41.4781 28.9937C38.7619 29.6859 36.0748 30.8695 33.4198 32.5474C28.9006 29.6946 24.297 28.2667 19.6089 28.2667C14.764 28.2667 9.85474 29.7935 4.88235 32.8469V32.8499C4.67296 32.9778 4.51883 33.1901 4.4723 33.4518L0.0316175 57.8917C-0.0498139 58.1912 0.0258009 58.5228 0.261357 58.7584L4.06812 62.5651C4.3473 62.8443 4.76607 62.8995 5.10339 62.7309C9.87858 60.7708 14.5836 59.9362 19.2165 60.227C23.8666 60.5178 28.4526 61.9399 32.9775 64.499C33.0008 64.5107 33.0212 64.5223 33.0444 64.5339H33.0473L33.0619 64.5426H33.0648L33.0822 64.5514C33.184 64.5921 33.2887 64.6153 33.3934 64.6183H33.3963H33.4138H33.4225H33.4312H33.4487H33.4516C33.5563 64.6153 33.661 64.5921 33.7627 64.5514L33.7802 64.5426H33.7831L33.7976 64.5339H33.8006C33.8238 64.5223 33.8471 64.5107 33.8674 64.499C38.471 61.8991 43.1385 60.4683 47.8726 60.2124C52.6068 59.9566 57.4199 60.8755 62.3119 62.9693V62.9664C62.6696 63.1176 63.1 63.0217 63.3529 62.7047L66.3948 58.9037L66.3835 58.8983ZM36.0897 11.6907C35.4063 11.0073 34.4612 10.5827 33.4172 10.5827C32.3732 10.5827 31.428 11.0043 30.7447 11.6907C30.0612 12.3741 29.6366 13.3192 29.6366 14.3632C29.6366 15.4072 30.0583 16.3524 30.7447 17.0358C31.4281 17.7192 32.3732 18.1438 33.4172 18.1438C34.4612 18.1438 35.4064 17.7221 36.0897 17.0358C36.7732 16.3523 37.1978 15.4072 37.1978 14.3632C37.1978 13.3192 36.7761 12.374 36.0897 11.6907ZM33.4172 8.8C34.9527 8.8 36.3428 9.42234 37.3519 10.4286C38.3582 11.4348 38.9805 12.8249 38.9805 14.3633C38.9805 15.8988 38.3582 17.2889 37.3519 18.298C36.3457 19.3043 34.9556 19.9266 33.4172 19.9266C31.8817 19.9266 30.4916 19.3042 29.4825 18.298C28.4762 17.2918 27.8539 15.9017 27.8539 14.3633C27.8539 12.8278 28.4763 11.4377 29.4825 10.4286C30.4887 9.42231 31.8788 8.8 33.4172 8.8ZM34.3071 5.12702C34.3071 5.6185 33.9087 6.01981 33.4143 6.01981C32.9228 6.01981 32.5215 5.62139 32.5215 5.12702V0.892783C32.5215 0.401305 32.9199 0 33.4143 0C33.9058 0 34.3071 0.398417 34.3071 0.892783V5.12702ZM27.5166 7.20346L25.8037 5.49055C25.4547 5.14158 24.8905 5.14158 24.5416 5.49055C24.1926 5.83953 24.1926 6.40374 24.5416 6.75268L26.2545 8.46558C26.6034 8.81456 27.1676 8.81456 27.5166 8.46558C27.8655 8.1166 27.8656 7.5524 27.5166 7.20346ZM24.1809 13.4705C24.6724 13.4705 25.0737 13.8689 25.0737 14.3633C25.0737 14.8548 24.6753 15.2561 24.1809 15.2561H19.9467C19.4552 15.2561 19.0539 14.8577 19.0539 14.3633C19.0539 13.8718 19.4523 13.4705 19.9467 13.4705H24.1809ZM26.2574 20.261C26.6063 19.912 27.1705 19.912 27.5195 20.261C27.8684 20.61 27.8685 21.1742 27.5195 21.5231L25.8066 23.236C25.4576 23.585 24.8934 23.585 24.5445 23.236C24.1955 22.8871 24.1955 22.3228 24.5445 21.9739L26.2574 20.261ZM32.5244 23.5967C32.5244 23.1052 32.9228 22.7039 33.4172 22.7039C33.9087 22.7039 34.31 23.1023 34.31 23.5967V27.8309C34.31 28.3224 33.9116 28.7237 33.4172 28.7237C32.9257 28.7237 32.5244 28.3253 32.5244 27.8309V23.5967ZM39.3149 21.5231C38.9659 21.1741 38.9659 20.6099 39.3149 20.261C39.6639 19.9121 40.2281 19.912 40.577 20.261L42.2899 21.9739C42.6389 22.3229 42.6389 22.8871 42.2899 23.236C41.941 23.585 41.3768 23.585 41.0278 23.236L39.3149 21.5231ZM42.6506 15.2532C42.1591 15.2532 41.7578 14.8548 41.7578 14.3604C41.7578 13.8689 42.1562 13.4676 42.6506 13.4676H46.8848C47.3763 13.4676 47.7776 13.866 47.7776 14.3604C47.7776 14.8519 47.3792 15.2532 46.8848 15.2532H42.6506ZM40.577 8.46268L42.2899 6.74977C42.6389 6.4008 42.6389 5.83659 42.2899 5.48765C41.941 5.13871 41.3768 5.13868 41.0278 5.48765L39.3149 7.20056C38.9659 7.54953 38.9659 8.11374 39.3149 8.46268C39.6639 8.81162 40.2281 8.81165 40.577 8.46268ZM47.8183 34.6796C48.3098 34.6709 48.7111 35.0635 48.7198 35.555C48.7285 36.0465 48.3359 36.4478 47.8444 36.4565C46.1315 36.4914 44.4244 36.7327 42.7232 37.1835C41.022 37.6343 39.3265 38.2973 37.6369 39.1727C37.2007 39.3966 36.6627 39.225 36.4388 38.7888C36.2148 38.3526 36.3864 37.8146 36.8226 37.5906C38.6257 36.6571 40.4404 35.9476 42.2696 35.4619C44.1017 34.9762 45.9483 34.7145 47.8153 34.6767L47.8183 34.6796ZM58.7294 42.9449C59.1802 43.1426 59.3838 43.669 59.186 44.1197C58.9883 44.5705 58.4619 44.7741 58.0111 44.5763C54.5214 43.0379 51.0811 42.3137 47.6934 42.4039C44.3083 42.494 40.9581 43.3984 37.6399 45.1172C37.2037 45.3411 36.6657 45.1695 36.4417 44.7333C36.2178 44.2971 36.3894 43.7591 36.8256 43.5351C40.3793 41.6942 43.9883 40.7259 47.6526 40.627C51.311 40.5282 55.0014 41.3017 58.7327 42.9477L58.7294 42.9449ZM59.756 48.7698C60.2126 48.9472 60.4394 49.4649 60.262 49.9244C60.0846 50.381 59.567 50.6078 59.1075 50.4304C55.4316 48.9909 51.8081 48.3423 48.2343 48.4848C44.6573 48.6273 41.121 49.5579 37.6225 51.2795C37.1804 51.4947 36.6511 51.3115 36.4359 50.8724C36.2207 50.4304 36.4039 49.9011 36.8431 49.6858C40.5655 47.8538 44.34 46.862 48.1644 46.7108C51.9888 46.5596 55.8534 47.2459 59.756 48.7727L59.756 48.7698Z" fill="#96710F"/>
</svg>

<svg xmlns="http://www.w3.org/2000/svg" width="67" height="65" fill="none" viewBox="0 0 67 65"><path fill="#96710F" fill-rule="evenodd" d="M10.065 38.16a.893.893 0 0 1-1.154-.505.893.893 0 0 1 .506-1.155c3.525-1.381 7.014-1.977 10.472-1.797q5.187.271 10.23 2.885a.89.89 0 0 1 .384 1.198.89.89 0 0 1-1.198.384q-4.708-2.438-9.507-2.69-4.801-.251-9.733 1.678zm-1.13 6.413a.891.891 0 1 1-.72-1.631q5.594-2.465 11.081-2.32c3.664.098 7.27 1.066 10.827 2.907a.89.89 0 0 1 .384 1.198.89.89 0 0 1-1.198.384q-4.979-2.578-10.054-2.713-5.082-.135-10.318 2.172zm-1.097 5.854a.893.893 0 0 1-1.155-.506.893.893 0 0 1 .506-1.154q5.855-2.292 11.592-2.062 5.737.227 11.321 2.975a.886.886 0 0 1 .407 1.187.886.886 0 0 1-1.186.407q-5.248-2.582-10.612-2.795-5.362-.214-10.873 1.946zM54.55 30.716a.89.89 0 0 1-.148-1.25.89.89 0 0 1 1.25-.15l1.795 1.411 3.012-3.48a.889.889 0 0 1 1.344 1.163l-3.533 4.083-.006.008a.89.89 0 0 1-1.25.149l-2.461-1.934zm8.588-5.849a7.08 7.08 0 0 0-5.023-2.079c-1.96 0-3.737.794-5.022 2.08a7.08 7.08 0 0 0-2.08 5.022c0 1.96.794 3.737 2.08 5.022a7.08 7.08 0 0 0 5.022 2.08c1.96 0 3.737-.794 5.023-2.08a7.08 7.08 0 0 0 2.079-5.022c0-1.96-.794-3.737-2.08-5.023m-28.83 33.779v3.589q6.637-3.434 13.465-3.8 7.211-.39 14.601 2.634l2.14-2.676q-7.674-3.822-15.098-3.824-7.67 0-15.108 4.077M32.524 34.09q-6.368-4.04-12.918-4.042-6.609 0-13.462 4.11L2.082 56.522q7.765-3.74 15.335-3.74 7.673 0 15.107 3.847V34.087zm16.71-3.949a21.4 21.4 0 0 0-7.32.579q-3.834.976-7.607 3.37v22.544q7.438-3.848 15.107-3.848 7.568.001 15.335 3.74l-3.338-18.382a8.9 8.9 0 0 1-3.295.631 8.85 8.85 0 0 1-6.282-2.602 8.87 8.87 0 0 1-2.6-6.032m-16.71 32.091c-4.341-2.245-8.744-3.51-13.208-3.786q-7.11-.445-14.404 2.44l-2.528-2.528q7.643-3.79 15.032-3.789 7.67 0 15.108 4.077v3.589zm33.86-3.333a.89.89 0 0 0 .436-.927l-3.76-20.698q.725-.486 1.337-1.102A8.86 8.86 0 0 0 67 29.89a8.85 8.85 0 0 0-2.603-6.282 8.86 8.86 0 0 0-6.281-2.603 8.85 8.85 0 0 0-6.282 2.603 8.85 8.85 0 0 0-2.472 4.76 23.1 23.1 0 0 0-7.884.626q-4.075 1.037-8.058 3.553-6.78-4.279-13.811-4.28-7.267 0-14.727 4.58v.003a.88.88 0 0 0-.41.602l-4.44 24.44a.89.89 0 0 0 .23.866l3.806 3.807c.28.28.698.335 1.035.166q7.164-2.94 14.113-2.504 6.975.434 13.761 4.272l.067.035h.003l.015.009h.003l.017.008q.154.062.311.067h.059a.9.9 0 0 0 .31-.067l.018-.008h.003l.015-.01h.003q.035-.016.066-.034 6.906-3.9 14.006-4.287 7.101-.383 14.439 2.757v-.003a.89.89 0 0 0 1.04-.261l3.043-3.801zM36.09 11.691a3.77 3.77 0 0 0-2.673-1.108 3.75 3.75 0 0 0-2.672 1.108 3.77 3.77 0 0 0-1.108 2.672c0 1.044.421 1.99 1.108 2.673a3.77 3.77 0 0 0 2.672 1.108c1.044 0 1.99-.422 2.673-1.108a3.77 3.77 0 0 0 1.108-2.673 3.76 3.76 0 0 0-1.108-2.672M33.417 8.8c1.536 0 2.926.622 3.935 1.629a5.54 5.54 0 0 1 1.629 3.934 5.56 5.56 0 0 1-1.63 3.935 5.54 5.54 0 0 1-3.934 1.629 5.56 5.56 0 0 1-3.934-1.629 5.54 5.54 0 0 1-1.63-3.935c0-1.535.623-2.925 1.63-3.934A5.54 5.54 0 0 1 33.417 8.8m.89-3.673a.893.893 0 0 1-1.785 0V.893a.893.893 0 0 1 1.785 0zm-6.79 2.076-1.713-1.712a.892.892 0 1 0-1.262 1.262l1.712 1.713a.892.892 0 1 0 1.263-1.263M24.18 13.47a.893.893 0 0 1 0 1.786h-4.234a.893.893 0 0 1 0-1.786zm2.076 6.791a.892.892 0 1 1 1.262 1.262l-1.712 1.713a.892.892 0 1 1-1.262-1.262zm6.267 3.336a.893.893 0 0 1 1.786 0v4.234a.893.893 0 0 1-1.786 0zm6.79-2.074a.892.892 0 1 1 1.263-1.262l1.713 1.713a.892.892 0 1 1-1.262 1.262zm3.337-6.27a.893.893 0 0 1 0-1.785h4.234a.893.893 0 0 1 0 1.785zm-2.074-6.79L42.29 6.75a.892.892 0 1 0-1.262-1.262L39.315 7.2a.892.892 0 1 0 1.262 1.262m7.241 26.217a.887.887 0 1 1 .026 1.776q-2.569.052-5.12.727a25 25 0 0 0-5.087 1.99.89.89 0 0 1-.814-1.582 26.8 26.8 0 0 1 5.447-2.13 23.4 23.4 0 0 1 5.545-.784zm10.911 8.265a.891.891 0 1 1-.718 1.631q-5.236-2.307-10.318-2.172-5.077.135-10.053 2.713a.89.89 0 0 1-1.198-.384.89.89 0 0 1 .384-1.198q5.33-2.76 10.827-2.908c3.658-.099 7.348.675 11.08 2.32zm1.027 5.825a.893.893 0 0 1 .506 1.154.893.893 0 0 1-1.154.506q-5.513-2.16-10.874-1.945-5.365.213-10.611 2.794a.887.887 0 0 1-.78-1.593q5.584-2.748 11.321-2.975 5.738-.228 11.592 2.062z" clip-rule="evenodd"/></svg>
